X:1
T:Risen Lord, 66.66.8.10
T:Thoro Harris, 1910
T:Risen Lord, 66.66.8.10
T:Public Domain
C:Thoro Harris, 1910
Z:Public Domain
%%score ( 1 2 ) ( 3 4 )
L:1/8
M:4/4
K:Bb
V:1 treble 
V:2 treble 
V:3 bass 
V:4 bass 
V:1
 F2 | [DB]3 F [EG]2 [EA]2 | [DB]6 F2 | [Fc]3 F [FA]2 [FB]2 | [Fc]6 F2 | [Fd]2 [Ec]2 [DB]2 [FA]2 | %6
 [EG]6 [FG]2 | [Ee]2 [Fd]2 [Gc]2 [GB]2 | [FA]6 F2 | [EA]4 (G2 F2) | [DB]6 F2 | [Fc]4 (A2 F2) | %12
 [Fd]6 [Fd]2 | [EG]4 (E2 F2) | [Ee]2 [Fd]2 [Gc]2 [GB]2 | [FB]4 [EA]4 | [DB]6 |] %17
V:2
 F2 | x3 F x4 | x6 F2 | x3 F x4 | x6 F2 | x8 | x8 | x8 | x6 F2 | x4 E4 | x6 F2 | x4 F4 | x8 | %13
 x4 G4 | x8 | x8 | x6 |] %17
V:3
 F,2 | [B,,F,]3 [D,B,] [E,B,]2 F,2 | [B,,F,]6 F,2 | [F,A,]3 [F,A,] [F,C]2 [F,D]2 | [F,E]6 [F,A,]2 | %5
 B,2 [F,A,]2 [G,B,]2 [D,B,]2 | (E,2 F,2 E,2) [D,=B,]2 | [C,C]2 [D,G,]2 [E,G,]2 [=E,C]2 | %8
 (F,2 G,2 F,2) F,2 | (F,2 F,2) (F,2 F,2) | (F,2 F,2 F,2) F,2 | (F,2 F,2) ([F,C]2 [F,A,]2) | %12
 (B,2 B,2 B,2) [B,,B,]2 | [E,B,]4 ([E,B,]2 [D,=B,]2) | [C,C]2 [D,=B,]2 [E,C]2 [=E,^C]2 | %15
 [F,D]4 [F,,C]4 | [B,,B,]6 |] %17
V:4
 F,2 | x6 F,2 | x6 F,2 | x8 | x8 | B,2 x6 | =B,4 x4 | x8 | C6 F,2 | C4 C4 | B,6 F,2 | A,4 x4 | %12
 B,6 x2 | x8 | x8 | x8 | x6 |] %17

